icons/arrow-square-down.svg

<svg width="24" height="24" viewBox="0 0 24 24" fill="none" xmlns="http://www.w3.org/2000/svg">
<path fill-rule="evenodd" clip-rule="evenodd" d="M20.25 9C20.25 6.11421 17.8858 3.75 15 3.75L9 3.75C6.11421 3.75 3.75 6.11421 3.75 9L3.75 15C3.75 17.7858 6.21421 20.25 9 20.25L15 20.25C17.8858 20.25 20.25 17.8858 20.25 15L20.25 9ZM15 2.25C18.7142 2.25 21.75 5.28579 21.75 9L21.75 15C21.75 18.7142 18.7142 21.75 15 21.75L9 21.75C5.38579 21.75 2.25 18.6142 2.25 15L2.25 9C2.25 5.28579 5.28579 2.25 9 2.25L15 2.25ZM12 7.85C12.4142 7.85 12.75 8.18578 12.75 8.6L12.75 13.7893L14.4697 12.0697C14.7626 11.7768 15.2374 11.7768 15.5303 12.0697C15.8232 12.3626 15.8232 12.8374 15.5303 13.1303L13.0303 15.6303C12.5374 16.1232 11.7626 16.1232 11.2697 15.6303L8.76967 13.1303C8.47678 12.8374 8.47678 12.3626 8.76967 12.0697C9.06256 11.7768 9.53744 11.7768 9.83033 12.0697L11.25 13.4893L11.25 8.6C11.25 8.18578 11.5858 7.85 12 7.85Z" fill="black"/>
</svg>

<svg xmlns="http://www.w3.org/2000/svg" fill="none" viewBox="0 0 24 24">
  <path fill="#000" fill-rule="evenodd" d="M20.25 9c0-2.886-2.364-5.25-5.25-5.25H9C6.114 3.75 3.75 6.114 3.75 9v6c0 2.786 2.464 5.25 5.25 5.25h6c2.886 0 5.25-2.364 5.25-5.25V9ZM15 2.25c3.714 0 6.75 3.036 6.75 6.75v6c0 3.714-3.036 6.75-6.75 6.75H9c-3.614 0-6.75-3.136-6.75-6.75V9c0-3.714 3.036-6.75 6.75-6.75h6Zm-3 5.6a.75.75 0 0 1 .75.75v5.19l1.72-1.72a.75.75 0 1 1 1.06 1.06l-2.5 2.5a1.233 1.233 0 0 1-1.76 0l-2.5-2.5a.75.75 0 1 1 1.06-1.06l1.42 1.42V8.6a.75.75 0 0 1 .75-.75Z" clip-rule="evenodd"/>
</svg>
